src/icon.svg

<svg clip-rule="evenodd" fill-rule="evenodd" stroke-linejoin="round" stroke-miterlimit="2" viewBox="0 0 358 358" xmlns="http://www.w3.org/2000/svg" xmlns:xlink="http://www.w3.org/1999/xlink"><clipPath id="a"><path clip-rule="evenodd" d="m-14.464 0h357.96v357.96h-357.96z"/></clipPath><g transform="translate(14.4636)"><path d="m-14.464 0h357.96v357.96h-357.96z" fill="none"/><g clip-path="url(#a)"><g fill-rule="nonzero" transform="matrix(.095238 0 0 -.095238 -15.4834 378.925)"><path d="m1775 3928c-323-146-838-267-1284-302l-92-7v-885c0-561 4-915 11-967 28-204 110-416 233-601 136-205 338-406 580-580 178-127 452-281 613-344l56-22 96 38c258 103 582 300 779 472 350 307 544 635 598 1008 13 85 16 273 16 995v890h-39c-22 0-120 9-218 21-422 50-822 152-1123 285-64 28-116 50-116 50 0-1-50-24-110-51z" fill="#ffe9ae"/><g fill="#333f4c"><path d="m1775 3928c-323-146-838-267-1284-302l-92-7v-885c0-561 4-915 11-967 28-204 110-416 233-601 136-205 338-406 580-580 178-127 452-281 613-344l56-22 96 38c258 103 582 300 779 472 350 307 544 635 598 1008 13 85 16 273 16 995v890h-39c-22 0-120 9-218 21-422 50-822 152-1123 285-64 28-116 50-116 50 0-1-50-24-110-51zm250-321.26c277-111 595.18-194.56 984.18-249.56l106.7-18.31-4-739.87c-3-830-23.23-853.82-46.23-941.82-91.49-350.02-359.88-705.977-790.65-960.993-125-74-354-185-381-184-53 0-412 119.813-578 241.813-414 305-647 634-712 1004-13 78-16 218-16 887v795l171 24c393 56 741.39 77.75 1016.39 190.75 66 27 113.61 4.99 119.61 2.99s64-25 130-51z"/><path d="m1898 3591c-8 0-.18-2970.722 1.82-2972.722 7-7 185.18 65.722 310.18 140.722 166 98 320 217 441 338 186 187 288 355 355 583 22 77 23 94 26 852l3 773-60 7c-282 32-797 163-1015 257-28 12-56 22-62 22z" transform="matrix(-1.19967 0 0 1.18866 4169.16 -386.512)"/></g></g></g></g></svg>

<?xml version="1.0" encoding="UTF-8" standalone="no"?>
<!DOCTYPE svg PUBLIC "-//W3C//DTD SVG 1.1//EN" "http://www.w3.org/Graphics/SVG/1.1/DTD/svg11.dtd">
<svg width="100%" height="100%" viewBox="0 0 358 358" version="1.1" xmlns="http://www.w3.org/2000/svg" xmlns:xlink="http://www.w3.org/1999/xlink" xml:space="preserve" xmlns:serif="http://www.serif.com/" style="fill-rule:evenodd;clip-rule:evenodd;stroke-linejoin:round;stroke-miterlimit:2;">
    <g transform="matrix(1,0,0,1,14.4636,0)">
        <g transform="matrix(0.0905777,0,0,-0.0905777,-6.65541,369.168)">
            <path d="M1775,3928C1452,3782 937,3661 491,3626L399,3619L399,2734C399,2173 403,1819 410,1767C438,1563 520,1351 643,1166C779,961 981,760 1223,586C1401,459 1675,305 1836,242L1892,220L1988,258C2246,361 2570,558 2767,730C3117,1037 3311,1365 3365,1738C3378,1823 3381,2011 3381,2733L3381,3623L3342,3623C3320,3623 3222,3632 3124,3644C2702,3694 2302,3796 2001,3929C1937,3957 1885,3979 1885,3979C1885,3978 1835,3955 1775,3928Z" style="fill:rgb(255,233,174);fill-rule:nonzero;"/>
        </g>
        <g transform="matrix(0.095238,0,0,-0.095238,-15.4834,378.925)">
            <path d="M1775,3928C1452,3782 937,3661 491,3626L399,3619L399,2734C399,2173 403,1819 410,1767C438,1563 520,1351 643,1166C779,961 981,760 1223,586C1401,459 1675,305 1836,242L1892,220L1988,258C2246,361 2570,558 2767,730C3117,1037 3311,1365 3365,1738C3378,1823 3381,2011 3381,2733L3381,3623L3342,3623C3320,3623 3222,3632 3124,3644C2702,3694 2302,3796 2001,3929C1937,3957 1885,3979 1885,3979C1885,3978 1835,3955 1775,3928ZM2025,3606.74C2302,3495.74 2620.18,3412.18 3009.18,3357.18L3115.88,3338.87L3111.88,2599C3108.88,1769 3088.65,1745.18 3065.65,1657.18C2974.16,1307.16 2705.77,951.203 2275,696.187C2150,622.187 1921,511.187 1894,512.187C1841,512.187 1482,632 1316,754C902,1059 669,1388 604,1758C591,1836 588,1976 588,2645L588,3440L759,3464C1152,3520 1500.39,3541.75 1775.39,3654.75C1841.39,3681.75 1889,3659.74 1895,3657.74C1901,3655.74 1959,3632.74 2025,3606.74Z" style="fill:rgb(51,63,76);fill-rule:nonzero;"/>
        </g>
        <g transform="matrix(-0.114254,0,0,-0.113206,381.579,415.736)">
            <path d="M1898,3591C1890,3591 1897.82,620.278 1899.82,618.278C1906.82,611.278 2085,684 2210,759C2376,857 2530,976 2651,1097C2837,1284 2939,1452 3006,1680C3028,1757 3029,1774 3032,2532L3035,3305L2975,3312C2693,3344 2178,3475 1960,3569C1932,3581 1904,3591 1898,3591Z" style="fill:rgb(51,63,76);fill-rule:nonzero;"/>
        </g>
    </g>
</svg>
